svg/librenms-dark.svg

<svg xmlns="http://www.w3.org/2000/svg" xml:space="preserve" viewBox="0 0 512 512"><path d="m286.1 176.7 49.2 49.2-19.4 19.7-49.2-49.2zM376 86.9l49.2 49.2-19.5 19.7-49.2-49.2zm-3.1 176.8 49.5 49.2-19.5 19.7-50.8-49.2zm89.9-89.8 49.2 49.2-19.4 19.7-49.2-49.2zm-194.7-36.5 49.5-49.2 19.5 19.5-49.1 49.2zm87 86.9 49.2-49.2 19.7 19.4-49.2 49.2zm86.8 87 49.2-49.5 19.7 19.5-50.8 49.2zm-263.7-83.6 49.2-49.2 19.7 19.4-49.2 49.1zm86.8 86.8 49.5-49.2 19.4 19.4-49.2 49.2zm86.9 86.9 49.2-49.5 19.7 19.5-49.5 50.8zm-245.6-45 49.5 49.2-19.4 19.7-49.5-49.5zm90-89.8 49.2 49.2-19.4 19.5-49.2-49.2zm-2.7 176.7 49.2 49.2-19.6 19.5-49.2-49.2zm89.6-89.8 49.2 49.2-19.4 19.5-49.1-49.2zM19.5 269.4l49.2 49.2L49.2 338 0 288.8zm90-89.8 49.2 49.2-19.5 19.5L90 199.1zm89.6-89.8 49.2 49.2-19 19.7-49.2-49.2zM288.8 0l49.5 49.2-19.5 19.5L268 19.5zM181.3 50.8l49.2-49.2L250 21l-49.2 49.2zm-89.9 89.9 49.2-49.2 19.7 19.5-49.2 49.2zm-89.8 90 49.2-49.2 19.5 19L21.1 250zm86.6 86.6 49.2-49.2 19.7 19.5-49.2 49.2zm87 87 49.2-49.2 19.5 19.4-49.2 49.2zm86.6 86.9 49.5-49.2 19.5 19-49.2 49.5z"/></svg>

<?xml version="1.0" encoding="utf-8"?>
<!-- Generator: Adobe Illustrator 28.2.0, SVG Export Plug-In . SVG Version: 6.00 Build 0)  -->
<svg version="1.1" id="Layer_1" xmlns="http://www.w3.org/2000/svg" xmlns:xlink="http://www.w3.org/1999/xlink" x="0px" y="0px"
	 viewBox="0 0 512 512" style="enable-background:new 0 0 512 512;" xml:space="preserve">
<path d="M286.1,176.7l49.2,49.2l-19.4,19.7l-49.2-49.2L286.1,176.7z M376,86.9l49.2,49.2l-19.5,19.7l-49.2-49.2L376,86.9z
	 M372.9,263.7l49.5,49.2l-19.5,19.7l-50.8-49.2L372.9,263.7z M462.8,173.9l49.2,49.2l-19.4,19.7l-49.2-49.2L462.8,173.9z
	 M268.1,137.4l49.5-49.2l19.5,19.5L288,156.9L268.1,137.4z M355.1,224.3l49.2-49.2l19.7,19.4l-49.2,49.2L355.1,224.3z M441.9,311.3
	l49.2-49.5l19.7,19.5L460,330.5L441.9,311.3z M178.2,227.7l49.2-49.2l19.7,19.4L197.9,247L178.2,227.7z M265,314.5l49.5-49.2
	l19.4,19.4l-49.2,49.2L265,314.5z M351.9,401.4l49.2-49.5l19.7,19.5l-49.5,50.8L351.9,401.4z M106.3,356.4l49.5,49.2l-19.4,19.7
	l-49.5-49.5L106.3,356.4z M196.3,266.6l49.2,49.2l-19.4,19.5l-49.2-49.2L196.3,266.6z M193.6,443.3l49.2,49.2L223.2,512L174,462.8
	L193.6,443.3z M283.2,353.5l49.2,49.2L313,422.2L263.9,373L283.2,353.5z M19.5,269.4l49.2,49.2L49.2,338L0,288.8L19.5,269.4z
	 M109.5,179.6l49.2,49.2l-19.5,19.5L90,199.1L109.5,179.6z M199.1,89.8l49.2,49.2l-19,19.7l-49.2-49.2L199.1,89.8z M288.8,0
	l49.5,49.2l-19.5,19.5L268,19.5L288.8,0z M181.3,50.8l49.2-49.2L250,21l-49.2,49.2L181.3,50.8z M91.4,140.7l49.2-49.2l19.7,19.5
	l-49.2,49.2L91.4,140.7z M1.6,230.7l49.2-49.2l19.5,19L21.1,250L1.6,230.7z M88.2,317.3l49.2-49.2l19.7,19.5l-49.2,49.2L88.2,317.3z
	 M175.2,404.3l49.2-49.2l19.5,19.4l-49.2,49.2L175.2,404.3z M261.8,491.2l49.5-49.2l19.5,19l-49.2,49.5L261.8,491.2z"/>
</svg>
